X: 18627
T: I Wish My Love Were In A Mire
R: reel
M: 4/4
K: Dmajor
AB|d2fed2F2|EDEF B2AB|d2A2defe|d2cBB2fe|
d2efd2F2|EDEF B3d|ABAF GFED|d2cBB2:|
|:fe|d2ABA2fe|dedB A2df|g2b2afed|g2fee2fg|
afefd2AF|EDEF B3d|ABAF GFED|d2cBB2:|

